icons/svg/airplane-takeoff.svg

<svg width="24" height="24" viewBox="0 0 24 24" fill="none" xmlns="http://www.w3.org/2000/svg">
<path d="M2.75 20.75H21.25" stroke="currentColor" stroke-width="1.5" stroke-linecap="round" stroke-linejoin="round"/>
<path d="M18.5746 6.29863C19.4276 5.80617 20.5183 6.09842 21.0108 6.95139C21.5032 7.80436 21.211 8.89505 20.358 9.38752L11.3105 14.6111C10.8848 14.8569 10.418 15.0231 9.93277 15.1016L7.32945 15.5228C6.31947 15.6862 5.2951 15.33 4.60437 14.5753L2.90937 12.7232C2.64725 12.4368 2.7175 11.9813 3.05373 11.7872L3.44519 11.5612C3.93013 11.2812 4.5298 11.2909 5.00546 11.5864L6.82108 12.7142C7.01134 12.8324 7.25121 12.8362 7.44519 12.7242L11.0449 10.6459L6.64053 5.52585C6.39232 5.2373 6.46766 4.79416 6.79728 4.60386L7.1753 4.38561C7.50108 4.19752 7.9043 4.20561 8.22226 4.40663L14.728 8.51948L18.5746 6.29863Z" stroke="currentColor" stroke-width="1.5" stroke-linecap="round" stroke-linejoin="round"/>
</svg>

<svg xmlns="http://www.w3.org/2000/svg" width="24" height="24" fill="none" viewBox="0 0 24 24"><path stroke="currentColor" stroke-linecap="round" stroke-linejoin="round" stroke-width="1.5" d="M2.75 20.75h18.5M18.575 6.299a1.783 1.783 0 0 1 1.783 3.089L11.31 14.61a4 4 0 0 1-1.377.49l-2.604.422a3.04 3.04 0 0 1-2.725-.948L2.91 12.723a.607.607 0 0 1 .145-.936l.391-.226a1.52 1.52 0 0 1 1.56.025l1.816 1.128c.19.118.43.122.624.01l3.6-2.078-4.404-5.12a.607.607 0 0 1 .156-.922l.378-.218c.326-.188.73-.18 1.047.02l6.506 4.113z"/></svg>
